icon/lg/xray-for-jira.svg

<?xml version="1.0" encoding="UTF-8"?>
<svg viewBox="0 0 512 209" version="1.1" xmlns="http://www.w3.org/2000/svg" preserveAspectRatio="xMidYMid" height="1em" width="1em">
  <g>
    <polygon fill="#31B34B" opacity="0.5" points="98.0921379 104.306759 49.0813793 116.559448 24.5406897 208.366345"/>
    <polygon fill="#31B34B" opacity="0.8" points="98.0921379 104.306759 0 129.024 0 67.4427586 73.5514483 67.4427586 98.2686897 104.271448"/>
    <polygon fill="#31B34B" points="0 67.4427586 0 128.882759 73.5514483 0"/>
    <path d="M153.070345,55.0488276 L175.598345,87.3224828 L198.126345,55.0488276 L220.371862,55.0488276 L187.568552,102.046897 L223.408552,153.317517 L200.73931,153.317517 L175.704276,118.219034 L150.987034,153.317517 L128.882759,153.317517 L164.193103,102.929655 L131.142621,55.0488276 L153.070345,55.0488276 Z M298.902069,153.317517 L281.988414,124.363034 C280.812462,124.433662 279.633331,124.433662 278.457379,124.363034 L256.494345,124.363034 L256.494345,153.317517 L237.638621,153.317517 L237.638621,55.0488276 L278.457379,55.0488276 C303.774897,55.0488276 318.216828,67.2308966 318.216828,88.8761379 C318.216828,104.342069 311.366621,115.394207 298.760828,120.655448 L320.300138,153.317517 L298.902069,153.317517 Z M256.529655,107.731862 L278.598621,107.731862 C292.722759,107.731862 300.420414,101.729103 300.420414,89.3704828 C300.420414,77.0118621 292.581517,71.3975172 278.598621,71.3975172 L256.494345,71.3975172 L256.494345,107.767172 L256.529655,107.731862 Z M405.46869,132.449103 L357.517241,132.449103 L348.830897,153.317517 L329.445517,153.317517 L372.524138,55.0488276 L391.944828,55.0488276 L434.387862,153.317517 L414.225655,153.317517 L405.46869,132.449103 Z M398.759724,116.276966 L381.669517,74.8226207 L364.014345,116.171034 L398.759724,116.276966 Z M476.442483,120.937931 L476.442483,153.317517 L457.69269,153.317517 L457.69269,121.856 L421.111172,55.0488276 L440.143448,55.0488276 L466.838069,101.234759 L493.144276,55.0488276 L512,55.0488276 L476.442483,120.937931 Z" fill="#000000"/>
  </g>
</svg>

<svg width="512" height="209" xmlns="http://www.w3.org/2000/svg" preserveAspectRatio="xMidYMid"><path fill="#31B34B" opacity=".5" d="m98.092 104.307-49.01 12.252-24.541 91.807z"/><path fill="#31B34B" opacity=".8" d="M98.092 104.307 0 129.024V67.443h73.551L98.27 104.27z"/><path fill="#31B34B" d="M0 67.443v61.44L73.551 0z"/><path d="m153.07 55.049 22.528 32.273 22.528-32.273h22.246l-32.803 46.998 35.84 51.27h-22.67l-25.035-35.098-24.717 35.099h-22.104l35.31-50.388-33.05-47.881h21.927Zm145.832 98.269-16.914-28.955c-1.176.07-2.355.07-3.53 0h-21.964v28.955H237.64v-98.27h40.818c25.318 0 39.76 12.183 39.76 33.828 0 15.466-6.85 26.518-19.456 31.78l21.54 32.662h-21.399Zm-42.372-45.586h22.069c14.124 0 21.821-6.003 21.821-18.362 0-12.358-7.838-17.972-21.821-17.972h-22.105v36.37l.036-.036Zm148.939 24.717h-47.952l-8.686 20.869h-19.385l43.078-98.27h19.42l42.444 98.27h-20.162l-8.757-20.869Zm-6.71-16.172-17.09-41.454-17.655 41.348 34.746.106Zm77.683 4.66v32.38h-18.75v-31.461l-36.58-66.807h19.031l26.695 46.186 26.306-46.186H512l-35.558 65.889Z"/></svg>
